X: 618
T: Across The Fence
R: hornpipe
M: 4/4
K: Gmajor
D2|B2BD cBcA|dgge dBGB|cBcd BGDB|BAAG AF~F2|
GDBD GABc|dgge dBGB|dG (3Bcd edcF|AGGF G2:|
AG|(3FED AD FAcA|BG~G2 DGBg|ec~c2 dB~B2|BAAG (3FED BA|
DB~B2 Dc~c2|d>cd>e dBGB|dg (3Bcd edcF|AGGF G2:|
Bc|dggf g2bg|g2bg agfg|eaag a2ag|fed^c d2d=c|
(3Bcd BG (3ABc AF|GDBD GABc|dg (3Bcd edcF|AGGF G2:|

